icons/outline/map-pin-cog.svg

<!--
category: Map
tags: [configure, adjust, gear, apparatus, mechanism, tweak, system, settings, operation, process]
version: "2.10"
unicode: "f94e"
-->
<svg
  xmlns="http://www.w3.org/2000/svg"
  width="24"
  height="24"
  viewBox="0 0 24 24"
  fill="none"
  stroke="currentColor"
  stroke-width="2"
  stroke-linecap="round"
  stroke-linejoin="round"
>
  <path d="M9 11a3 3 0 1 0 6 0a3 3 0 0 0 -6 0m3.005 10.485a1.994 1.994 0 0 1 -1.418 -.585l-4.244 -4.243a8 8 0 1 1 13.634 -5.05m-.976 7.393m-2 0a2 2 0 1 0 4 0a2 2 0 1 0 -4 0m2 -3.5v1.5m0 4v1.5m3.031 -5.25l-1.299 .75m-3.463 2l-1.3 .75m0 -3.5l1.3 .75m3.463 2l1.3 .75" />
</svg>

<!--
category: Map
tags: [configure, adjust, gear, apparatus, mechanism, tweak, system, settings, operation, process]
version: "2.10"
unicode: "f94e"
-->
<svg
  xmlns="http://www.w3.org/2000/svg"
  width="24"
  height="24"
  viewBox="0 0 24 24"
  fill="none"
  stroke="currentColor"
  stroke-width="2"
  stroke-linecap="round"
  stroke-linejoin="round"
>
    <path d="M9 11a3 3 0 1 0 6 0a3 3 0 0 0 -6 0M12.005 21.485a1.994 1.994 0 0 1 -1.418 -.585l-4.244 -4.243a8 8 0 1 1 13.634 -5.05M19.001 19m-2 0a2 2 0 1 0 4 0a2 2 0 1 0 -4 0M19.001 15.5v1.5M19.001 21v1.5M22.032 17.25l-1.299 .75M17.27 20l-1.3 .75M15.97 17.25l1.3 .75M20.733 20l1.3 .75" />
</svg>
